packages/dnb-ui-lib/assets/icons/loan_medium.svg

<svg width="24" height="24" viewBox="0 0 24 24" fill="none" xmlns="http://www.w3.org/2000/svg">
<path d="M23.25 20.25H21.75M0.75 20.25H2.25M2.25 20.25V5.5C2.25 5.08579 2.58579 4.75 3 4.75H6C6.41421 4.75 6.75 5.08579 6.75 5.5V20.25M2.25 20.25H6.75M6.75 20.25H9.75M9.75 20.25V9.5C9.75 9.08579 10.0858 8.75 10.5 8.75H13.5C13.9142 8.75 14.25 9.08579 14.25 9.5V20.25M9.75 20.25H14.25M14.25 20.25H17.25M17.25 20.25V13.5C17.25 13.0858 17.5858 12.75 18 12.75H21C21.4142 12.75 21.75 13.0858 21.75 13.5V20.25M17.25 20.25H21.75" stroke="black" stroke-width="1.5" stroke-linecap="round" stroke-linejoin="round"/>
</svg>

<svg width="24" height="24" viewBox="0 0 24 24" fill="none" xmlns="http://www.w3.org/2000/svg"><path d="M23.25 20.25h-1.5m-21 0h1.5m0 0V5.5A.75.75 0 013 4.75h3a.75.75 0 01.75.75v14.75m-4.5 0h4.5m0 0h3m0 0V9.5a.75.75 0 01.75-.75h3a.75.75 0 01.75.75v10.75m-4.5 0h4.5m0 0h3m0 0V13.5a.75.75 0 01.75-.75h3a.75.75 0 01.75.75v6.75m-4.5 0h4.5" stroke="#000" stroke-width="1.5" stroke-linecap="round" stroke-linejoin="round"/></svg>
